X: 34947
T: Rocky Road To Dublin, The
R: slip jig
M: 9/8
K: Adorian
(3 efe dB AG|EA AB cd|(3 efe dB Ac|BG GG Bd|
(3 efe dB AG|EA AB cd|(3 efg fa ge|dB GA Bd:|
|:ea af gg|ea aA Bd|ea af ge|dB GA Bd|
ea af gg|ea af ga|bb af ge|dB GA Bd:|
|:(3 efe dB cA|eA cA Bd|(3 efe dB cA|BG GG Bd|
(3 efe dB cA|eA cA Bd|(3 efg fa ge|dB GA Bd:|

